assets/quickreceitas.svg

<svg width="24" height="24" viewBox="0 0 24 24" fill="none" xmlns="http://www.w3.org/2000/svg">
<mask id="mask0_533_27" style="mask-type:luminance" maskUnits="userSpaceOnUse" x="1" y="2" width="22" height="20">
<path d="M21 18V10H7V18C7 18.7956 7.31607 19.5587 7.87868 20.1213C8.44129 20.6839 9.20435 21 10 21H18C18.7956 21 19.5587 20.6839 20.1213 20.1213C20.6839 19.5587 21 18.7956 21 18Z" fill="#555555" stroke="white" stroke-width="2" stroke-linecap="round" stroke-linejoin="round"/>
<path d="M2 10H22M9 4V6M14 3V6M19 4V6" stroke="white" stroke-width="2" stroke-linecap="round" stroke-linejoin="round"/>
</mask>
<g mask="url(#mask0_533_27)">
<path d="M0 0H24V24H0V0Z" fill="url(#paint0_linear_533_27)"/>
</g>
<defs>
<linearGradient id="paint0_linear_533_27" x1="0" y1="0" x2="28.9316" y2="13.1491" gradientUnits="userSpaceOnUse">
<stop stop-color="#ED3731"/>
<stop offset="1" stop-color="#FDB863"/>
</linearGradient>
</defs>
</svg>

<svg xmlns="http://www.w3.org/2000/svg" width="24" height="24" fill="none"><mask id="a" width="22" height="20" x="1" y="2" maskUnits="userSpaceOnUse" style="mask-type:luminance"><path fill="#555" stroke="#fff" stroke-linecap="round" stroke-linejoin="round" stroke-width="2" d="M21 18v-8H7v8a3 3 0 0 0 3 3h8a3 3 0 0 0 3-3Z"/><path stroke="#fff" stroke-linecap="round" stroke-linejoin="round" stroke-width="2" d="M2 10h20M9 4v2m5-3v3m5-2v2"/></mask><g mask="url(#a)"><path fill="url(#b)" d="M0 0h24v24H0V0Z"/></g><defs><linearGradient id="b" x1="0" x2="28.932" y1="0" y2="13.149" gradientUnits="userSpaceOnUse"><stop stop-color="#ED3731"/><stop offset="1" stop-color="#FDB863"/></linearGradient></defs></svg>
